!!!!SEGMENT: pl-kk--kk-i-423--001-003_golabek-jakub--missa-1a-et-in-terra.krn
!!!cenid: 17xx:2553
!!!COM: Gołąbek, Jakub
!!!COM-rismID: pe30008748
!!!CDT: 1739-1789/03/30
!!!CNT: Polish
!!!OPR: Missa 1a
!!!OTL: Et in terra
!!!OMV: 003
!!!PDT:
!!!AGN: Sacred; Mass
!!!YEC: Copyright 2022 Narodowy Instytut Fryderyka Chopina (https://polishscores.org)
!!!YEM: License CC-BY-4.0 (https://creativecommons.org/licenses/by/4.0)
!!!SMS-siglum: PL-Kk
!!!SMS-shelfmark: Kk.I.423
!!!SMS-variant:
!!!SMS-altvar:
!!!SMS-shelfwork: 001-003 M
!!!NIFC-rismSourceID: 1001147334
!!!NIFC-rismChildID: 1001147336
!!!NIFC-islandoraID:
!!!URL-pdf-islandora: https://repozytorium.nifc.pl/islandora/object/pl-kk%3A10566/datastream/PDF/view
!!!URL-scan: https://polish.musicsources.pl/pl/lokalizacje/galeria/rekopisy/6034-masses/3 @EN{Scan on Polish Music Sources Website} @PL{Skany w portalu Dziedzictwo Muzyki Polskiej w otwartym dostępie}
!!!IIIF:
!!!ONB-nifc: UWAGA: C – skan 3-4, A – 7-8, T – 11-12, B – 15-16. Części Mszy: Kyrie, Christe, Et in terra, Quoniam, Sanctus (+Osanna), Benedictus, Agnus Dei.
!!!AIN: 1 alto 1 bass 1 canto 1 tenor
!!!key:
**kern	**text	**dynam	**kern	**text	**dynam	**kern	**text	**dynam	**kern	**text	**dynam
*part4	*part4	*part4	*part3	*part3	*part3	*part2	*part2	*part2	*part1	*part1	*part1
*staff4	*staff4	*	*staff3	*staff3	*	*staff2	*staff2	*	*staff1	*staff1	*
*I"Basso	*	*	*I"Tenore	*	*	*I"Alto	*	*	*I"Canto	*	*
*I'B.	*	*	*I'T.	*	*	*I'A.	*	*	*I'C.	*	*
*Ibass	*	*	*Itenor	*	*	*Ialto	*	*	*Icanto	*	*
*ICvox	*	*	*ICvox	*	*	*ICvox	*	*	*ICvox	*	*
*clefF4	*	*	*clefC4	*	*	*clefC3	*	*	*clefC1	*	*
*k[]	*	*	*k[]	*	*	*k[]	*	*	*k[]	*	*
*C:	*	*	*C:	*	*	*C:	*	*	*C:	*	*
*M3/2	*	*	*M3/2	*	*	*M3/2	*	*	*M3/2	*	*
=1	=1	=1	=1	=1	=1	=1	=1	=1	=1	=1	=1
!	!	!	!LO:TX:a:t=Lente	!	!	!LO:TX:a:t=Lente	!	!	!LO:TX:a:t=Lente	!	!
*2\right	*	*	*2\right	*	*	*2\right	*	*	*2\right	*	*
2c\	Et	.	2c\	Et	.	2e\	Et	.	2g\	Et	.
2E\	.	.	2e\	.	.	2g\	.	.	2cc\	.	.
2G\	in	.	2d\	in	.	2f\	in	.	2b\	in	.
=2	=2	=2	=2	=2	=2	=2	=2	=2	=2	=2	=2
2C/	ter-	.	1c	ter-	.	1e	ter-	.	1g	ter-	.
2E/	.	.	.	.	.	.	.	.	.	.	.
2G\	-ra	.	2B\	-ra	.	2d\	-ra	.	2g/	-ra	.
=3	=3	=3	=3	=3	=3	=3	=3	=3	=3	=3	=3
2C/	pax	.	4c\	pax	.	4e\	pax	.	1g	pax	.
.	.	.	8B\L	.	.	8d\L	.	.	.	.	.
.	.	.	8c\J	.	.	8e\J	.	.	.	.	.
2BB/	.	.	2d\	.	.	2f\	.	.	.	.	.
2C/	ho-	.	2c\	ho-	.	2e\	ho-	.	2g/	ho-	.
=4	=4	=4	=4	=4	=4	=4	=4	=4	=4	=4	=4
2.G\	-mi-	.	2.B\	-mi-	.	2.d\	-mi-	.	2.g/	-mi-	.
4G\	-ni-	.	4B\	-ni-	.	4d\	-ni-	.	4g/	-ni	.
2G\	-bus	.	2B\	-bus	.	2d\	-bus	.	2g/	bus	.
=5	=5	=5	=5	=5	=5	=5	=5	=5	=5	=5	=5
1G	bo-	.	2B\	bo-	.	2d\	bo-	.	1g	bo-	.
.	.	.	2c\	.	.	2e\	.	.	.	.	.
2G\	-ne-	.	2d\	-ne-	.	2f\	-ne-	.	2b\	-ne-	.
=6	=6	=6	=6	=6	=6	=6	=6	=6	=6	=6	=6
2C/	-vo-	.	2c\	-vo-	.	2e\	-vo-	.	2g\	-vo-	.
2BB/	.	.	2f\	.	.	2a\	.	.	2cc\	.	.
2C/	-lun-	.	2e\	-lun-	.	2g\	-lun-	.	2cc\	-lun-	.
!LO:LB:g=original	!	!	!LO:LB:g=original	!	!	!LO:LB:g=original	!	!	!LO:LB:g=original	!	!
=7	=7	=7	=7	=7	=7	=7	=7	=7	=7	=7	=7
.	.	.	.	.	.	8qqg/	.	.	.	.	.
2F\	-ta-	.	2d\	-ta-	.	2f\	-ta-	.	2a\	-ta-	.
2G\	.	.	2c\	.	.	2e\	.	.	1g	.	.
2GG/	.	.	2B\	.	.	2d\	.	.	.	.	.
=8	=8	=8	=8	=8	=8	=8	=8	=8	=8	=8	=8
.	.	.	.	.	.	8qqd/	.	.	.	.	.
2C/	-tis	.	2c\	-tis	.	2e\	-tis	.	2g\	-tis	.
2r	.	.	2r	.	.	2r	.	.	2r	.	.
2r	.	.	4c\	Lau-	.	4e\	Lau-	.	2r	.	.
.	.	.	4d\	.	.	4f\	.	.	.	.	.
=9	=9	=9	=9	=9	=9	=9	=9	=9	=9	=9	=9
2C/	Lau-	.	1e	-da-	.	1g	-da-	.	2cc\	Lau-	.
2E\	-da-	.	.	.	.	.	.	.	2cc\	-da-	.
2G\	-mus	.	2d\	-mus	.	2f\	-mus	.	2b\	-mus	.
=10	=10	=10	=10	=10	=10	=10	=10	=10	=10	=10	=10
2C/	te	.	2c\	te	.	2e\	te	.	2g\	te	.
2r	.	.	2c\	Be-	.	2e\	Be-	.	2r	.	.
2r	.	.	4c\	-ne-	.	4e\	-ne-	.	2r	.	.
.	.	.	4d\	.	.	4f\	.	.	.	.	.
=11	=11	=11	=11	=11	=11	=11	=11	=11	=11	=11	=11
4C/	Be-	.	1e	-di-	.	1g	-di-	.	4g/	Be-	.
4C/	-ne-	.	.	.	.	.	.	.	4g/	-ne-	.
2E\	-di-	.	.	.	.	.	.	.	2cc\	-di-	.
4G\	-ci-	.	4d\	-ci-	.	4f\	-ci-	.	4b\	-ci-	.
4G\	-mus	.	4d\	-mus	.	4f\	-mus	.	4b\	-mus	.
=12	=12	=12	=12	=12	=12	=12	=12	=12	=12	=12	=12
2C/	te	.	2c\	te	.	2e\	te	.	2g/	te	.
2G\	A-	.	4B\	A-	.	4d\	A-	.	4dd\	a-	.
.	.	.	4d\	.	.	4f\	.	.	4b\	.	.
2G\	-do-	.	4c\	-do-	.	4e\	-do-	.	2cc\	-do-	.
.	.	.	4e\	.	.	4g\	.	.	.	.	.
!LO:PB:g=original	!	!	!LO:PB:g=original	!	!	!	!	!	!LO:PB:g=original	!	!
=13	=13	=13	=13	=13	=13	=13	=13	=13	=13	=13	=13
.	.	.	.	.	.	8qqg/	.	.	.	.	.
2B\	-ra-	.	1d	-ra-	.	1f	-ra-	.	1g	-ra-	.
2G\	.	.	.	.	.	.	.	.	.	.	.
2c\	-mus	.	2c\	-mus	.	2e\	-mus	.	2g/	-mus	.
!	!	!	!	!	!	!LO:PB:g=original	!	!	!	!	!
=14	=14	=14	=14	=14	=14	=14	=14	=14	=14	=14	=14
2G\	te	.	2B\	te	.	2d\	te	.	2g/	te	.
2r	.	.	2r	.	.	2r	.	.	2r	.	.
2G\	Glo-	.	2d\	Glo-	.	2f\	Glo-	.	2b\	glo-	.
=15	=15	=15	=15	=15	=15	=15	=15	=15	=15	=15	=15
2C/	-ri-	.	2e\	-ri-	.	2g\	-ri-	.	2g/	-ri-	.
2D/	.	.	2d\	.	.	2f\	.	.	2b\	.	.
2E/	-fi-	.	2c\	-fi-	.	2e\	-fi-	.	2g/	-fi	.
=16	=16	=16	=16	=16	=16	=16	=16	=16	=16	=16	=16
2F\	-ca-	.	2d\	-ca-	.	2f\	-ca-	.	2a\	ca-	.
2G\	.	.	2c\	.	.	2e\	.	.	2g\	.	.
2GG/	-mus	.	2B\	-mus	.	2d\	-mus	.	2g\	-mus	.
=17	=17	=17	=17	=17	=17	=17	=17	=17	=17	=17	=17
.	.	.	8qqB/	.	.	.	.	.	.	.	.
1C	te	.	1c	te	.	1e	te	.	1g	te	.
2r	.	.	2r	.	.	2r	.	.	2r	.	.
=18	=18	=18	=18	=18	=18	=18	=18	=18	=18	=18	=18
!	!	!LO:DY:a	!	!	!	!	!	!LO:DY:a	!	!	!LO:DY:a
2.A\	Gra-	p	2.c\	Gra-	p	2.e\	Gra-	p	2.cc\	Gra-	p
4B\	-ti-	.	4d\	-ti-	.	4e\	-ti-	.	4g#X\	-ti-	.
2c\	-as	.	2e\	-as	.	2e\	-as	.	2a\	-as	.
!	!	!	!	!	!	!	!	!	!LO:LB:g=original	!	!
=19	=19	=19	=19	=19	=19	=19	=19	=19	=19	=19	=19
2B\	a-	.	2d\	a-	.	2e\	a-	.	2g#X\	a-	.
2A\	-gi-	.	2c\	-gi-	.	2e\	-gi-	.	2a\	-gi-	.
2G#X\	-mus	.	2B\	-mus	.	2e\	-mus	.	2dd\	-mus	.
!LO:LB:g=original	!	!	!LO:LB:g=original	!	!	!	!	!	!	!	!
=20	=20	=20	=20	=20	=20	=20	=20	=20	=20	=20	=20
2A\	ti-	.	1c	ti-	.	1e	ti-	.	2cc\	ti-	.
2F\	.	.	.	.	.	.	.	.	2a\	.	.
2D#X\	.	.	2A\	.	.	2f#X\	.	.	2cc\	.	.
!	!	!	!	!	!	!LO:LB:g=original	!	!	!	!	!
=21	=21	=21	=21	=21	=21	=21	=21	=21	=21	=21	=21
2E\	-bi	.	2G/	-bi	.	2e\	-bi	.	2b\	-bi	.
2B\	prop-	.	2G/	p(ro)p-	.	2e\	prop-	.	2dd\	prop-	.
2G#X\	-ter	.	2G/	-ter	.	2e\	-ter	.	2b\	-ter	.
=22	=22	=22	=22	=22	=22	=22	=22	=22	=22	=22	=22
2A\	ma-	.	2c\	Ma-	.	1e	Ma-	.	2cc\	ma-	.
2c\	.	.	2e\	.	.	.	.	.	2a\	.	.
2A\	-gnam	.	2c\	-gnam	.	2e\	-gnam	.	2cc\	-gnam	.
=23	=23	=23	=23	=23	=23	=23	=23	=23	=23	=23	=23
2.G#X\	glo-	.	2.d\	glo-	.	2.f\	Glo-	.	2.b\	glo-	.
4G#\	-ri-	.	4d\	-ri-	.	4f\	-ri-	.	4b\	-ri-	.
2A\	-am	.	2c\	-am	.	2e\	-am	.	2a\	-am	.
=24	=24	=24	=24	=24	=24	=24	=24	=24	=24	=24	=24
2D\	tu-	.	2d\	tu-	.	2f\	tu-	.	2b\	tu-	.
1E	.	.	2c\	.	.	1e	.	.	2a\	.	.
.	.	.	2B\	.	.	.	.	.	2g#X\	.	.
!	!	!	!	!	!	!	!	!	!LO:LB:g=original	!	!
=25	=25	=25	=25	=25	=25	=25	=25	=25	=25	=25	=25
!	!	!	!	!	!	!	!	!LO:DY:a	!	!	!
2AA/	-am	.	2c\	-am	.	2e\	-am	f	2a\	-am	.
!	!	!LO:DY:a	!	!	!LO:DY:a	!	!	!	!	!	!LO:DY:a:t=for
2C/	Do-	f	2e\	Do-	f	2g\	Do-	.	2gn\	Do-	f
4BB/	-mi-	.	4d\	-mi-	.	4f\	-mi-	.	4g\	-mi-	.
4C/	-ne	.	4c\	-ne	.	4e\	-ne	.	4g\	-ne	.
!LO:LB:g=original	!	!	!LO:LB:g=original	!	!	!	!	!	!	!	!
=26	=26	=26	=26	=26	=26	=26	=26	=26	=26	=26	=26
2G\	De-	.	2B\	De-	.	2d\	De-	.	2b\	De-	.
2GG/	-us	.	2B\	-us	.	2d\	-us	.	2dd\	-us	.
4G\	Rex	.	4B\	Rex	.	4d\	Rex	.	4dd\	Rex	.
4G\	Ce-	.	4c\	ce-	.	4e\	ce-	.	4cc\	Ce-	.
=27	=27	=27	=27	=27	=27	=27	=27	=27	=27	=27	=27
2G\	-le-	.	2d\	-le-	.	2f\	-le-	.	2b\	-le-	.
2GG/	.	.	2B\	.	.	2d\	.	.	2g\	.	.
2C/	-stis	.	2c\	-stis	.	2e\	-stis	.	2g\	-stis	.
!	!	!	!	!	!	!LO:LB:g=original	!	!	!	!	!
=28	=28	=28	=28	=28	=28	=28	=28	=28	=28	=28	=28
2GG/	De-	.	2B\	De-	.	2d\	De-	.	2dd\	De-	.
2G\	.	.	2d\	.	.	2f\	.	.	2b\	.	.
2G\	-us	.	2c\	-us	.	2e\	-us	.	2g\	-us	.
=29	=29	=29	=29	=29	=29	=29	=29	=29	=29	=29	=29
.	.	.	.	.	.	8qe/	.	.	.	.	.
1G	Pa-	.	2B\	Pa-	.	2d\	Pa-	.	2g\	Pa-	.
.	.	.	2d\	.	.	2f\	.	.	2b\	.	.
2c\	-ter	.	2c\	-ter	.	2e\	-ter	.	2g\	-ter	.
!	!	!	!	!	!	!	!	!	!LO:LB:g=original	!	!
=30	=30	=30	=30	=30	=30	=30	=30	=30	=30	=30	=30
2F\	om-	.	4A\	om-	.	4d\	om-	.	2a\	o-	.
.	.	.	4d\	-ni-	.	4f\	-ni-	.	.	.	.
2G\	-ni-	.	2c\	.	.	2e\	-po-	.	2g\	-mni-	.
2GG/	-po-	.	2B\	-po-	.	2d\	.	.	2g\	-po-	.
!	!	!	!LO:LB:g=original	!	!	!	!	!	!	!	!
=31	=31	=31	=31	=31	=31	=31	=31	=31	=31	=31	=31
2C/	-tens	.	2c\	-tens	.	2e\	-tens	.	2g\	-tens	.
4C/	Do-	.	2e\	Do-	.	2g\	Do-	.	2cc\	Do-	.
4E\	.	.	.	.	.	.	.	.	.	.	.
4G\	-mi-	.	4e\	-mi-	.	4g\	-mi-	.	4cc\	-mi-	.
4E\	-ne	.	4e\	-ne	.	4g\	-ne	.	4cc\	-ne	.
!LO:LB:g=original	!	!	!	!	!	!	!	!	!	!	!
=32	=32	=32	=32	=32	=32	=32	=32	=32	=32	=32	=32
2C/	Fi-	.	2e\	Fi-	.	2g\	Fi-	.	2cc\	Fi-	.
2D/	.	.	2d\	.	.	2f\	.	.	2b\	.	.
2E/	-li	.	2c\	-li	.	2e\	-li	.	2g\	-li	.
=33	=33	=33	=33	=33	=33	=33	=33	=33	=33	=33	=33
2G\	u-	.	4B\	u-	.	4d\	u-	.	2b\	u-	.
.	.	.	4c\	.	.	4e\	.	.	.	.	.
2B\	.	.	2d\	.	.	2f\	.	.	2g/	.	.
2c\	-ni	.	2c\	-ni	.	2e\	-ni	.	2g/	-ni	.
!	!	!	!	!	!	!LO:LB:g=original	!	!	!	!	!
=34	=34	=34	=34	=34	=34	=34	=34	=34	=34	=34	=34
4G\	ge-	.	4c\	ge-	.	4e\	ge-	.	4g/	ge-	.
4G\	-ni-	.	4B\	-ni-	.	4d\	-ni-	.	4g/	-ni-	.
2G\	-te	.	2B\	-te	.	2d\	-te	.	2g/	-te	.
2r	.	.	2r	.	.	2r	.	.	2r	.	.
!	!	!	!	!	!	!	!	!	!LO:LB:g=original	!	!
=35	=35	=35	=35	=35	=35	=35	=35	=35	=35	=35	=35
1G#X	Je-	.	1d	Je-	.	1f	Je-	.	1b	Je-	.
2G#\	-su	.	2d\	-su	.	2f\	-su	.	2b\	-su	.
=36	=36	=36	=36	=36	=36	=36	=36	=36	=36	=36	=36
2A\	Je-	.	2c\	Je-	.	2e\	Je-	.	2cc\	Je-	.
2G#X\	.	.	2d\	.	.	2f\	.	.	2b\	.	.
2A\	-su	.	2c\	-su	.	2e\	-su	.	2a\	-su	.
!	!	!	!LO:LB:g=original	!	!	!	!	!	!	!	!
=37	=37	=37	=37	=37	=37	=37	=37	=37	=37	=37	=37
2D\	Chri-	.	2d\	Chri-	.	2f\	Chri-	.	2b\	Chri-	.
1E	.	.	2c\	.	.	1e	.	.	2a\	.	.
.	.	.	2B\	.	.	.	.	.	2g#X\	.	.
=38	=38	=38	=38	=38	=38	=38	=38	=38	=38	=38	=38
2AA/	-ste	.	2c\	-ste	.	2e\	-ste	.	2a\	-ste	.
!LO:LB:g=original	!	!	!	!	!	!	!	!	!	!	!
2A\	Do-	.	2c#X\	Do-	.	2e\	Do-	.	2a\	Do-	.
4G\	-mi-	.	4c#\	-mi-	.	4e\	-mi-	.	4a\	-mi-	.
4G\	-ne	.	4c#\	-ne	.	4e\	-ne	.	4a\	-ne	.
=39	=39	=39	=39	=39	=39	=39	=39	=39	=39	=39	=39
2F\	De-	.	2A\	De-	.	2d\	De-	.	1a	De-	.
2E\	.	.	2c\	.	.	2e\	.	.	.	.	.
2D\	-us	.	2d\	-us	.	2f\	-us	.	2a\	-us	.
=40	=40	=40	=40	=40	=40	=40	=40	=40	=40	=40	=40
2C#X/	a-	.	1e	A-	.	1g	a-	.	2a\	a-	.
2AA/	.	.	.	.	.	.	.	.	2cc#X\	.	.
2D/	-gnus	.	2d\	-gnus	.	2f\	-gnus	.	2a\	-gnus	.
!	!	!	!	!	!	!LO:LB:g=original	!	!	!	!	!
=41	=41	=41	=41	=41	=41	=41	=41	=41	=41	=41	=41
2A\	De-	.	2c#X\	De-	.	2e\	De-	.	2a\	De-	.
2AA/	-i	.	2c#\	-i	.	2e\	-i	.	2a\	-i	.
2r	.	.	2r	.	.	2r	.	.	2r	.	.
=42	=42	=42	=42	=42	=42	=42	=42	=42	=42	=42	=42
2.C#X/	Fi-	.	2.e\	Fi-	.	2.g\	Fi-	.	2.b-X\	Fi-	.
4C#/	-li-	.	4e\	-li-	.	4g\	-li-	.	4b-\	-li-	.
2D/	-us	.	2d\	-us	.	2f\	-us	.	2a\	-us	.
!	!	!	!LO:LB:g=original	!	!	!	!	!	!	!	!
=43	=43	=43	=43	=43	=43	=43	=43	=43	=43	=43	=43
4F\	Pa-	.	4f\	Pa-	.	4a\	Pa-	.	4a\	Pa-	.
4G\	.	.	4e\	.	.	4g\	.	.	4b-X\	.	.
2A\	.	.	2d\	.	.	2f\	.	.	1a	.	.
2AA/	.	.	2c#X\	.	.	2e\	.	.	.	.	.
!LO:LB:g=original	!	!	!	!	!	!	!	!	!	!	!
=44	=44	=44	=44	=44	=44	=44	=44	=44	=44	=44	=44
2D/	-tris	.	2d\	-tris	.	2f\	-tris	.	1a	-tris	.
2r	.	.	2r	.	.	2r	.	.	.	.	.
!LO:TX:a:t=adagio	!	!LO:DY:b:t=p	!LO:TX:b:t=adagio	!	!LO:DY:b:t=p	!LO:TX:a:t=adagio	!	!	!LO:TX:a:t=adagio	!	!
2D/	Qui-	p	2d\	qui-	p	2f#X\	Qui-	.	2a\	Qui-	p
=45	=45	=45	=45	=45	=45	=45	=45	=45	=45	=45	=45
2D/	-tol-	.	2d\	-tol-	.	2f#X\	-tol-	.	2a\	-tol-	.
2C/	-lis	.	2d\	-lis	.	2f#\	-lis	.	2a\	-lis	.
2C/	pec-	.	2d\	pec-	.	2f#\	pec-	.	2a\	pec-	.
=46	=46	=46	=46	=46	=46	=46	=46	=46	=46	=46	=46
2BB-X/	-ca-	.	2d\	-ca-	.	2g\	-ca-	.	2b-X\	-ca-	.
2AA/	.	.	2c\	.	.	2f#X\	.	.	2cc\	.	.
2GG/	-ta	.	2B-X\	-ta	.	2g\	-ta	.	2dd\	-ta	.
!	!	!	!	!	!	!	!	!	!LO:LB:g=original	!	!
=47	=47	=47	=47	=47	=47	=47	=47	=47	=47	=47	=47
.	.	.	.	.	.	8qqg/	.	.	.	.	.
2D\	mun-	.	2A\	mun-	.	2f#X\	mun-	.	2dd\	mun-	.
2D\	-di	.	2A\	-di	.	2f#\	-di	.	2dd\	-di	.
2r	.	.	2r	.	.	2r	.	.	2r	.	.
!	!	!	!	!	!	!LO:LB:g=original	!	!	!	!	!
=48	=48	=48	=48	=48	=48	=48	=48	=48	=48	=48	=48
!	!	!LO:DY:a	!	!	!	!	!	!LO:DY:a	!	!	!LO:DY:a
2D\	Mi-	f	1A	mi-	.	2f#X\	Mi-	f	1cc	Mi-	f
2F#X\	.	.	.	.	.	2a\	.	.	.	.	.
2D\	-se-	.	2A\	-se-	.	2f#\	-se-	.	2cc\	-se-	.
!	!	!	!LO:LB:g=original	!	!	!	!	!	!	!	!
=49	=49	=49	=49	=49	=49	=49	=49	=49	=49	=49	=49
2G\	-re-	.	2B-X\	-re-	.	2g\	-re-	.	2dd\	-re-	.
2A\	.	.	2c\	.	.	2f#X\	.	.	2cc\	.	.
2B-X\	-re	.	2d\	-re	.	2g\	-re	.	2b-X\	-re	.
!LO:LB:g=original	!	!	!	!	!	!	!	!	!	!	!
=50	=50	=50	=50	=50	=50	=50	=50	=50	=50	=50	=50
2c\	no-	.	2e-X\	no-	.	2a\	no-	.	2cc\	no-	.
2d\	.	.	1d	.	.	2g\	.	.	2b-X\	.	.
2D/	.	.	.	.	.	2f#X\	.	.	2a\	.	.
=51	=51	=51	=51	=51	=51	=51	=51	=51	=51	=51	=51
2G\	-bis	.	2d\	-bis	.	2g\	-bis	.	2b\	-bis	.
2r	.	.	2r	.	.	2r	.	.	2r	.	.
2G\	Qui-	.	2d\	qui-	.	2g\	qui	.	2bn\	Qui-	.
=52	=52	=52	=52	=52	=52	=52	=52	=52	=52	=52	=52
2Fn\	-tol-	.	2d\	-tol-	.	2g\	tol-	.	2b\	-tol-	.
2F\	-lis	.	2d\	-lis	.	2g\	-lis	.	2b\	-lis	.
2F\	pec-	.	2d\	pec-	.	2g\	pec-	.	2b\	pec-	.
!	!	!	!	!	!	!	!	!	!LO:LB:g=original	!	!
=53	=53	=53	=53	=53	=53	=53	=53	=53	=53	=53	=53
4E-X\	-ca-	.	4c\	-ca-	.	4g\	-ca-	.	2g/	-ca-	.
4D\	-ta	.	4Bn\	.	.	4fn\	-ta	.	.	.	.
2C/	.	.	2c\	-ta	.	2e-X\	.	.	2g/	-ta	.
4r	.	.	2r	.	.	4r	.	.	4r	.	.
!	!	!LO:DY:b:t=p	!	!	!	!	!	!	!	!	!
4C/	pec-	p	.	.	.	4e-\	pec-	.	4g/	pec-	.
=54	=54	=54	=54	=54	=54	=54	=54	=54	=54	=54	=54
!	!	!	!LO:TX:a:t=2	!	!	!	!	!	!	!	!
2C/	-ca-	.	0.r	.	.	2e-X\	-ca-	.	1g	-ca-	.
2BBn/	.	.	.	.	.	2dn\	.	.	.	.	.
2C/	-ta	.	.	.	.	2e-\	-ta	.	2g/	-ta	.
!	!	!	!	!	!	!LO:LB:g=original	!	!	!	!	!
=55	=55	=55	=55	=55	=55	=55	=55	=55	=55	=55	=55
2G\	mun-	.	.	.	.	2d\	mun-	.	2bn\	Mun-	.
2GG/	-di	.	.	.	.	2d\	-di	.	2b\	-di	.
2r	.	.	.	.	.	2r	.	.	2r	.	.
!LO:LB:g=original	!	!	!	!	!	!	!	!	!	!	!
=56	=56	=56	=56	=56	=56	=56	=56	=56	=56	=56	=56
!	!	!	!	!	!	!	!	!	!	!	!LO:DY:a
2.A-X\	Su-	.	2.d\	Su-	.	2.f\	Su-	.	2.b\	Sus-	f
4A-\	-sci-	.	4d\	-sci-	.	4f\	-sci-	.	4b\	-ci-	.
2G\	-pe	.	2c\	-pe	.	2e-X\	-pe	.	2cc\	-pe	.
!	!	!	!LO:LB:g=original	!	!	!	!	!	!	!	!
=57	=57	=57	=57	=57	=57	=57	=57	=57	=57	=57	=57
1F	de-	.	1d	de-	.	1a-X	de-	.	1b	de-	.
2E-X\	-pre-	.	2c\	-pre-	.	2g\	-pre-	.	2cc\	-pre-	.
=58	=58	=58	=58	=58	=58	=58	=58	=58	=58	=58	=58
1D	-ca-	.	2Bn\	-ca-	.	1f	-ca-	.	1g	-ca-	.
.	.	.	2r	.	.	.	.	.	.	.	.
2C/	-ti-	.	2G/	-ti-	.	2e-X\	-ti-	.	2g/	-ti-	.
!	!	!	!	!	!	!	!	!	!LO:LB:g=original	!	!
=59	=59	=59	=59	=59	=59	=59	=59	=59	=59	=59	=59
2BBn/	-o-	.	2A-/	-o-	.	1f	-o-	.	1dd	-o-	.
2A-X\	.	.	2B-X/	.	.	.	.	.	.	.	.
2G\	-nem	.	2c\	-nem	.	2e-X\	-nem	.	2cc\	-nem	.
=60	=60	=60	=60	=60	=60	=60	=60	=60	=60	=60	=60
4E\	no-	.	4c\	no-	.	4g\	no-	.	4g/	no-	.
4F\	.	.	4A\	.	.	4f\	.	.	4a-X/	.	.
2G\	.	.	2c\	.	.	2e-X\	.	.	1g	.	.
2GG/	.	.	2Bn\	.	.	2d\	.	.	.	.	.
=61	=61	=61	=61	=61	=61	=61	=61	=61	=61	=61	=61
2C/	-bis	.	2c\	-stram	.	2e-X\	-stram	.	2g/	-stram	.
2r	.	.	2r	.	.	2r	.	.	2r	.	.
4C/	Qui	.	2c\	qui	.	2e-X\	qui	.	2g/	Qui	.
4E-X/	.	.	.	.	.	.	.	.	.	.	.
!LO:LB:g=original	!	!	!	!	!	!	!	!	!	!	!
=62	=62	=62	=62	=62	=62	=62	=62	=62	=62	=62	=62
2G\	se-	.	2Bn\	se-	.	2d\	se-	.	2g/	se-	.
2G\	-des	.	2B\	-des	.	2d\	-des	.	2g/	-des	.
4r	.	.	4r	.	.	4r	.	.	4r	.	.
4G\	ad	.	4B\	ad	.	4d\	ad	.	4g/	ad	.
!	!	!	!LO:LB:g=original	!	!	!LO:LB:g=original	!	!	!	!	!
=63	=63	=63	=63	=63	=63	=63	=63	=63	=63	=63	=63
2.c\	dex-	.	2.c\	dex-	.	2.e-X\	dex-	.	2.g/	dex-	.
4G\	-te-	.	4Bn\	-te-	.	4d\	-te-	.	4g/	-te-	.
2C/	-ram	.	2c\	-ram	.	2e-\	-ram	.	2g/	-ram	.
=64	=64	=64	=64	=64	=64	=64	=64	=64	=64	=64	=64
2A-X\	Pa-	.	1.d	Pa-	.	1f	Pa-	.	1bn	Pa-	.
2r	.	.	.	.	.	.	.	.	.	.	.
2F#X\	.	.	.	.	.	2an\	.	.	2cc\	.	.
!	!	!	!	!	!	!	!	!	!LO:LB:g=original	!	!
=65	=65	=65	=65	=65	=65	=65	=65	=65	=65	=65	=65
2G\	-tris	.	2d\	-tris	.	2g\	-tris	.	2b\	-tris	.
2G\	mi-	.	2d\	mi-	.	2g\	mi-	.	2b\	mi-	.
2G\	-se-	.	2d\	-se-	.	2g\	-se-	.	2b\	-se-	.
=66	=66	=66	=66	=66	=66	=66	=66	=66	=66	=66	=66
1A-X	-re-	.	1Bn	-re-	.	1f	-re-	.	1dd	-re-	.
2Bn\	-re	.	2d\	-re	.	2f\	-re	.	2g/	-re	.
=67	=67	=67	=67	=67	=67	=67	=67	=67	=67	=67	=67
2c\	no-	.	2c\	no-	.	2e-X\	no-	.	2g/	no-	.
2G\	.	.	2d\	.	.	2f\	.	.	2bn\	.	.
2E-X\	.	.	2c\	.	.	2g\	.	.	2g/	.	.
!LO:LB:g=original	!	!	!	!	!	!	!	!	!	!	!
=68	=68	=68	=68	=68	=68	=68	=68	=68	=68	=68	=68
2F\	.	.	2c\	.	.	2a-X\	.	.	2cc\	.	.
2G\	.	.	1d	.	.	1g	.	.	1g	.	.
2GG/	.	.	.	.	.	.	.	.	.	.	.
=69	=69	=69	=69	=69	=69	=69	=69	=69	=69	=69	=69
1C	-bis	.	1.en	-bis	.	1g	-bis	.	1g	-bis	.
2r	.	.	.	.	.	2r	.	.	2r	.	.
!LO:TX:b:t=Qvoniam V.S.	!	!	!LO:TX:b:t=Quoniam V.S.	!	!	!	!	!	!	!	!
==	==	==	==	==	==	==	==	==	==	==	==
*-	*-	*-	*-	*-	*-	*-	*-	*-	*-	*-	*-
!!!system-decoration: [(s1,s2,s3,s4)]
!!!ENC: Berenika Jozajtis
!!!END: 2024-02-06
!!!ENC: Leszek Kubiak
!!!END: 2024-08-02
